static/assets/images/networks/xrpl.svg

<svg width="256" height="256" viewBox="0 0 256 256" fill="none" xmlns="http://www.w3.org/2000/svg">
<path d="M128 256C198.692 256 256 198.692 256 128C256 57.3075 198.692 0 128 0C57.3075 0 0 57.3075 0 128C0 198.692 57.3075 256 128 256Z" fill="white"/>
<path d="M72.38 51.0086C68.4061 51.0052 64.4706 51.7841 60.7987 53.3008C57.1268 54.8175 53.7906 57.0421 50.9811 59.8474C48.1715 62.6526 45.9438 65.9834 44.4254 69.6491C42.9071 73.3148 42.1278 77.2434 42.1323 81.2101V103.126C42.1381 107.764 40.3668 112.228 37.1814 115.603C33.996 118.979 29.6378 121.01 25 121.282L25.2575 126.097L25 130.903C29.6407 131.175 34.0014 133.209 37.1873 136.588C40.3731 139.967 42.1425 144.435 42.1323 149.076V174.333C42.1187 182.712 45.4378 190.754 51.3604 196.692C57.2831 202.629 65.3249 205.977 73.719 206V196.378C67.8987 196.372 62.319 194.06 58.2042 189.951C54.0895 185.842 51.776 180.272 51.7714 174.462V149.076C51.7742 144.543 50.6648 140.079 48.5401 136.073C46.4154 132.067 43.3401 128.642 39.5831 126.097C43.3291 123.54 46.3959 120.113 48.5193 116.109C50.6426 112.106 51.7587 107.648 51.7714 103.118V81.2101C51.794 75.7604 53.9722 70.5402 57.832 66.6858C61.6917 62.8315 66.9204 60.655 72.38 60.6302H76.1309V51.0086H72.38ZM179.998 51.0086V60.6302H183.749C186.448 60.6347 189.119 61.1708 191.611 62.2077C194.102 63.2447 196.363 64.7622 198.266 66.6732C200.168 68.5842 201.674 70.8512 202.697 73.3442C203.721 75.8373 204.241 78.5074 204.229 81.2015V103.118C204.241 107.648 205.357 112.106 207.481 116.109C209.604 120.113 212.671 123.54 216.417 126.097C212.66 128.642 209.585 132.067 207.46 136.073C205.335 140.079 204.226 144.543 204.229 149.076V174.462C204.224 180.272 201.911 185.842 197.796 189.951C193.681 194.06 188.101 196.372 182.281 196.378V206C190.675 205.977 198.717 202.629 204.64 196.692C210.562 190.754 213.881 182.712 213.868 174.333V149.067C213.862 144.43 215.633 139.966 218.819 136.59C222.004 133.215 226.362 131.183 231 130.912L230.742 126.097L231 121.29C226.361 121.019 222.001 118.986 218.816 115.609C215.63 112.231 213.86 107.765 213.868 103.126V81.1929C213.881 73.2033 210.717 65.5352 205.069 59.8736C199.421 54.2121 191.753 51.0204 183.749 51L179.998 51.0086ZM78.6716 89.7607L108.524 117.683C113.879 122.52 120.843 125.198 128.064 125.198C135.286 125.198 142.25 122.52 147.604 117.683L177.457 89.7521H163.132L140.386 110.863C137.007 113.961 132.587 115.68 128 115.68C123.413 115.68 118.992 113.961 115.614 110.863L92.9972 89.7607H78.6716ZM126.79 131.606C119.995 131.907 113.526 134.596 108.524 139.197L78.5428 167.248H92.8598L115.752 145.871C119.129 142.776 123.548 141.058 128.133 141.058C132.718 141.058 137.137 142.776 140.514 145.871L163.26 167.248H177.594L147.604 139.197C144.808 136.624 141.529 134.629 137.957 133.326C134.384 132.023 130.589 131.439 126.79 131.606Z" fill="black"/>
</svg>

<svg xmlns="http://www.w3.org/2000/svg" fill="none" viewBox="0 0 256 256"><path fill="#fff" d="M128 256c70.692 0 128-57.308 128-128S198.692 0 128 0 0 57.308 0 128s57.308 128 128 128"/><path fill="#000" d="M72.38 51.009A30.3 30.3 0 0 0 60.799 53.3a30.2 30.2 0 0 0-9.818 6.546 30.2 30.2 0 0 0-6.556 9.802 30.1 30.1 0 0 0-2.293 11.561v21.916a18.14 18.14 0 0 1-4.95 12.477A18.2 18.2 0 0 1 25 121.282l.258 4.815-.258 4.806a18.22 18.22 0 0 1 12.187 5.685 18.15 18.15 0 0 1 4.945 12.488v25.257a31.6 31.6 0 0 0 9.228 22.359A31.7 31.7 0 0 0 73.72 206v-9.622a22 22 0 0 1-15.515-6.427 21.9 21.9 0 0 1-6.433-15.489v-25.386a27.7 27.7 0 0 0-3.23-13.003 27.76 27.76 0 0 0-8.958-9.976 27.95 27.95 0 0 0 8.936-9.988 27.9 27.9 0 0 0 3.252-12.991V81.21a20.65 20.65 0 0 1 6.061-14.524A20.72 20.72 0 0 1 72.38 60.63h3.75v-9.62zm107.618 0v9.621h3.751a20.52 20.52 0 0 1 14.517 6.043 20.48 20.48 0 0 1 5.963 14.528v21.917a27.9 27.9 0 0 0 3.252 12.991 27.94 27.94 0 0 0 8.936 9.988 27.76 27.76 0 0 0-8.957 9.976 27.7 27.7 0 0 0-3.231 13.003v25.386a21.9 21.9 0 0 1-6.433 15.489 22 22 0 0 1-15.515 6.427V206a31.7 31.7 0 0 0 22.359-9.308 31.6 31.6 0 0 0 9.228-22.359v-25.266a18.14 18.14 0 0 1 4.951-12.477A18.2 18.2 0 0 1 231 130.912l-.258-4.815.258-4.807a18.2 18.2 0 0 1-12.184-5.681 18.15 18.15 0 0 1-4.948-12.483V81.193a30.12 30.12 0 0 0-8.799-21.32A30.22 30.22 0 0 0 183.749 51zM78.672 89.76l29.852 27.922a29.15 29.15 0 0 0 19.54 7.515 29.15 29.15 0 0 0 19.54-7.515l29.853-27.93h-14.325l-22.746 21.11a18.33 18.33 0 0 1-24.772 0L92.997 89.761zm48.118 41.845a28.87 28.87 0 0 0-18.266 7.591l-29.981 28.051H92.86l22.892-21.377a18.326 18.326 0 0 1 24.762 0l22.746 21.377h14.334l-29.99-28.051a28.8 28.8 0 0 0-9.647-5.871 28.9 28.9 0 0 0-11.167-1.72"/></svg>
